app/component-library/components/Icons/Icon/assets/eye-slash.svg

<svg width="24" height="24" viewBox="0 0 24 24" fill="none" xmlns="http://www.w3.org/2000/svg">
<path d="M21.5507 9.17981C21.2607 8.71981 20.9507 8.28981 20.6307 7.88981C20.2607 7.41981 19.5607 7.37981 19.1407 7.79981L16.1407 10.7998C16.3607 11.4598 16.4007 12.2198 16.2007 13.0098C15.8507 14.4198 14.7107 15.5598 13.3007 15.9098C12.5107 16.1098 11.7507 16.0698 11.0907 15.8498C11.0907 15.8498 9.66071 17.2798 8.63071 18.3098C8.13071 18.8098 8.29071 19.6898 8.96071 19.9498C10.0307 20.3598 11.1407 20.5698 12.2807 20.5698C14.0607 20.5698 15.7907 20.0498 17.3707 19.0798C18.9807 18.0798 20.4307 16.6098 21.6007 14.7398C22.5507 13.2298 22.5007 10.6898 21.5507 9.17981Z" fill="currentColor"/>
<path d="M14.3009 9.98014L10.2609 14.0201C9.7509 13.5001 9.4209 12.7801 9.4209 12.0001C9.4209 10.4301 10.7009 9.14014 12.2809 9.14014C13.0609 9.14014 13.7809 9.47014 14.3009 9.98014Z" fill="currentColor"/>
<path d="M18.5308 5.75018L15.1408 9.14018C14.4108 8.40018 13.4008 7.96018 12.2808 7.96018C10.0408 7.96018 8.24076 9.77018 8.24076 12.0002C8.24076 13.1202 8.69076 14.1302 9.42076 14.8602L6.04076 18.2502H6.03076C4.92076 17.3502 3.90076 16.2002 3.03076 14.8402C2.03076 13.2702 2.03076 10.7202 3.03076 9.15018C4.19076 7.33017 5.61076 5.90018 7.19076 4.92018C8.77076 3.96018 10.5008 3.43018 12.2808 3.43018C14.5108 3.43018 16.6708 4.25018 18.5308 5.75018Z" fill="currentColor"/>
<path d="M15.1408 12C15.1408 13.57 13.8608 14.86 12.2808 14.86C12.2208 14.86 12.1708 14.86 12.1108 14.84L15.1208 11.83C15.1408 11.89 15.1408 11.94 15.1408 12Z" fill="currentColor"/>
<path d="M22.0506 2.22988C21.7506 1.92988 21.2606 1.92988 20.9606 2.22988L2.51064 20.6899C2.21064 20.9899 2.21064 21.4799 2.51064 21.7799C2.66064 21.9199 2.85064 21.9999 3.05064 21.9999C3.25064 21.9999 3.44064 21.9199 3.59064 21.7699L22.0506 3.30988C22.3606 3.00988 22.3606 2.52988 22.0506 2.22988Z" fill="currentColor"/>
</svg>

<svg xmlns="http://www.w3.org/2000/svg" width="24" height="24" viewBox="0 0 24 24" fill="none"><path d="M21.55 9.18c-.29-.46-.6-.89-.92-1.29a1 1 0 0 0-1.49-.09l-3 3c.22.66.26 1.42.06 2.21a4.021 4.021 0 0 1-2.9 2.9c-.79.2-1.55.16-2.21-.06l-2.46 2.46c-.5.5-.34 1.38.33 1.64 1.07.41 2.18.62 3.32.62 1.78 0 3.51-.52 5.09-1.49 1.61-1 3.06-2.47 4.23-4.34.95-1.51.9-4.05-.05-5.56zM14.3 9.98l-4.04 4.04c-.51-.52-.84-1.24-.84-2.02 0-1.57 1.28-2.86 2.86-2.86.78 0 1.5.33 2.02.84z" fill="currentColor"/><path d="m18.53 5.75-3.39 3.39a3.986 3.986 0 0 0-2.86-1.18c-2.24 0-4.04 1.81-4.04 4.04 0 1.12.45 2.13 1.18 2.86l-3.38 3.39h-.01c-1.11-.9-2.13-2.05-3-3.41-1-1.57-1-4.12 0-5.69C4.19 7.33 5.61 5.9 7.19 4.92c1.58-.96 3.31-1.49 5.09-1.49 2.23 0 4.39.82 6.25 2.32zM15.14 12c0 1.57-1.28 2.86-2.86 2.86-.06 0-.11 0-.17-.02l3.01-3.01c.02.06.02.11.02.17z" fill="currentColor"/><path d="M22.05 2.23c-.3-.3-.79-.3-1.09 0L2.51 20.69c-.3.3-.3.79 0 1.09a.758.758 0 0 0 1.08-.01L22.05 3.31c.31-.3.31-.78 0-1.08z" fill="currentColor"/></svg>
